X:1
T:Title
%%score { 1 | ( 2 3 ) }
L:1/8
M:4/4
K:G
V:1 treble nm="Grand Piano"
V:2 bass 
V:3 bass 
V:1
 z4 z2[Q:1/4=100] [B,D][B,D] | [DB]2 [DB]2 [DG]2 [EA][EB] | [Ec]2 E2 E2 EE | [B,D]2 [DG]2 B2 B2 | %4
[M:3/4] A6 |[M:1/4] DD |[M:4/4] B2 B2 G2 AB | [Ec]2 E2 E2 EE | ED[G,B,D][DG] [DFB]3 [CFA] | %9
[M:3/4] [B,G]6 |[M:1/4] [G,=FG]2 |[M:4/4] [Ec] [Ec]3- [Ec]2 [G,EG]2 | [CEA] [CEA]3- [CEA]2 z2 | %13
 [B,EG]4 [A,EA]2 [EA]2 | [^DB]6 [DB][DA] | [EG]4 [E^G]3 [EG] | [EA]6 [Dc][Dc] | %17
 [DB]2 z2 .[DA]2 .[^CA]2 | [DA]6 [DG][DG] | [EG]3 [EA] [DB]3 [CA] |[M:3/4] [B,G]6 |] %21
V:2
 z4 z2 [G,,G,][G,,G,] | [G,,G,]2 [G,,G,]2 [B,,G,]2 [C,G,][C,^G,] | %2
 [A,,A,]2 [C,G,C]2 [C,G,C]2 [C,G,C][C,G,C] | [G,,G,]2 [B,,G,]2 [D,G,D]2 [D,G,D]2 | %4
[M:3/4] [D,F,D]6 |[M:1/4] [F,A,][F,A,] |[M:4/4][K:treble] [G,D]2 [G,D]2 [G,B,D]2 [G,CD][G,D=F] | %7
 [C,C]2 [C,G,C]2 [C,G,C]2 [C,G,C][^C,G,A,] | [D,G,B,]2 z B, D,3 D, |[M:3/4] G,,6 |[M:1/4] B,,2 | %11
[M:4/4] [C,G,] [C,G,]3- [C,G,]2 C,2 | A,, A,,3- A,,2 z2 | E,4 C,2 [C,E,]2 | %14
 [B,,F,]6 [B,,F,][B,,F,] | [E,G,]4 [D,B,]3 [D,B,] | [^C,A,]6 [D,A,][D,A,] | %17
 [G,,G,]2 z2 .[A,,F,]2 .[A,,G,]2 | [D,F,]6 [B,,G,][B,,G,] | [C,G,]3 [C,G,] [D,G,]3 [D,F,] | %20
[M:3/4] [G,,G,]6 |] %21
V:3
 x8 | x8 | x8 | x8 |[M:3/4] x6 |[M:1/4] x2 |[M:4/4][K:treble] x8 | x8 | z2 D,2 z4 |[M:3/4] x6 | %10
[M:1/4] x2 |[M:4/4] x8 | x8 | x8 | x8 | x8 | x8 | x8 | x8 | x8 |[M:3/4] x6 |] %21

